X:1
T: Gordon's Favourite
C:
R:Reel
Q: 232
K:G
M:4/4
L:1/8
|:D2|G3A BG Bd|ed ef gd Bd|gf ge dB GB|AB AG E2 DE|
G2 GA BG Bd|ed ef g2 ag|fa fd eg fe|d2 f2 d2:|
|:d2|e2 ce ge ce|d2 Bd gd Bd|c2 Ac B2 AB|AB AG E2 DE|
G2 BA BG Bd|ed ef gf ge|dB GB Ac BA|G2 B2 G2:|
